X: 1
T: Sl\"angpolska efter Johann Olsson
O: Leif Alpsj\"o
R: bond-polska
Z: John Chambers <jc@trillian.mit.edu>
M: 3/4
L: 1/8
K: C
F \
|: "C"E2 CE G>c \
| e2 cd B>d \
|1,3 "Dm"f>e dc B>A \
| "G7"A<G G2 F>F \
:|2,4 "Dm"fe/f/ ag "G7"f>c \
| BA/B/ "C"c4 :|
|: "C"{e}g2 ge c>e \
| "G7"d>c Bc d>e \
| f2 fG B>d \
| "C"c>B cd e>f \
| "C"g2 ge c>f \
| "Dm"a2 af d>g |
| "G7"b2 ba g>f \
| "C"e>a ge c>e \
| "C"g2 ge c>f \
| "Dm"a2 af d>g \
| "G7"b2 ba g>B \
| "C"{B}c2 c4 :|

%%sep 1 1 500

